round/svg/contact_mail.svg

<svg xmlns="http://www.w3.org/2000/svg" width="24" height="24"><path fill="none" d="M0 0h24v24H0z"/><g><path d="M21 8V7l-3 2-3-2v1l2.72 1.82a.5.5 0 0 0 .55 0L21 8zm1-5H2C.9 3 0 3.9 0 5v14c0 1.1.9 2 2 2h20c1.1 0 1.99-.9 1.99-2L24 5c0-1.1-.9-2-2-2zM8 6c1.66 0 3 1.34 3 3s-1.34 3-3 3-3-1.34-3-3 1.34-3 3-3zm6 12H2v-1c0-2 4-3.1 6-3.1s6 1.1 6 3.1v1zm7.5-6h-7c-.28 0-.5-.22-.5-.5v-5c0-.28.22-.5.5-.5h7c.28 0 .5.22.5.5v5c0 .28-.22.5-.5.5z"/></g></svg>

<?xml version="1.0" encoding="utf-8"?>
<!-- Generator: Adobe Illustrator 19.1.0, SVG Export Plug-In . SVG Version: 6.00 Build 0)  -->
<svg version="1.1" xmlns="http://www.w3.org/2000/svg" xmlns:xlink="http://www.w3.org/1999/xlink" x="0px" y="0px" width="24px"
	 height="24px" viewBox="0 0 24 24" enable-background="new 0 0 24 24" xml:space="preserve">
<g id="Bounding_Boxes">
	<g id="ui_x5F_spec_x5F_header_copy_2">
	</g>
	<rect fill="none" width="24" height="24"/>
</g>
<g id="Rounded_1_">
	<g id="ui_x5F_spec_x5F_header_copy_6">
	</g>
	<path d="M21,8V7l-3,2l-3-2v1l2.72,1.82c0.17,0.11,0.39,0.11,0.55,0L21,8z M22,3H2C0.9,3,0,3.9,0,5v14c0,1.1,0.9,2,2,2h20
		c1.1,0,1.99-0.9,1.99-2L24,5C24,3.9,23.1,3,22,3z M8,6c1.66,0,3,1.34,3,3s-1.34,3-3,3s-3-1.34-3-3S6.34,6,8,6z M14,18H2v-1
		c0-2,4-3.1,6-3.1s6,1.1,6,3.1V18z M21.5,12h-7c-0.28,0-0.5-0.22-0.5-0.5v-5C14,6.22,14.22,6,14.5,6h7C21.78,6,22,6.22,22,6.5v5
		C22,11.78,21.78,12,21.5,12z"/>
</g>
</svg>
